X: 1
T: Black Earth Circle waltz
T: Schwarzerdner
O: Austria ca.1800
R: waltz
Z: 2018 John Chambers <jc:trillian.mit.edu>
M: 3/4
L: 1/8
K: D
A2 |\
"D"d3cde | f4d2 | "Em"e3^def | g4e2 |\
"D"fgfef2 | a2g2f2 | "G"efed"A7"ce | "D"d2z2 :|[K:A]
|: cd |\
"A"edecfe | "E7"d4Bc | dcdBed | "A"c3EAB |\
"A"cdcBc2 | "D"d4c2 | "E7"BcBAGB | "A"A2z2 :|
|: A,B, |\
"A"C4D2 | E4F2 | "E7"B,4E2 | "A"DCB,CA,2 |\
C4D2 | E4F2 | "E7"B,4E2 | "A"A,4 :|

